resources/svg/bug.svg

<svg xmlns="http://www.w3.org/2000/svg" viewBox="0 0 15 15" fill="currentColor"><path fill-rule="evenodd" clip-rule="evenodd" d="M4 3.941V3.5C4 1.567 5.567 0 7.5 0C9.433 0 11 1.567 11 3.5V3.94098L13.7764 2.5528L14.2236 3.44722L11.2708 4.9236L11.3138 5.00952C11.7651 5.91208 12 6.90732 12 7.91641V8H15V9H12V10.5C12 11.1253 11.8725 11.7208 11.642 12.262L14.2236 13.5528L13.7764 14.4472L11.1492 13.1337C10.3318 14.2643 9.00182 15 7.5 15C5.99817 15 4.66818 14.2643 3.85076 13.1336L1.22358 14.4472L0.776367 13.5528L3.35803 12.262C3.12754 11.7208 3 11.1253 3 10.5V9H0V8H3V7.91641C3 6.90731 3.23494 5.91208 3.68622 5.00952L3.72917 4.92362L0.776367 3.44722L1.22358 2.5528L4 3.941ZM5 3.5C5 2.11929 6.11929 1 7.5 1C8.88071 1 10 2.11929 10 3.5V4H5V3.5Z" fill="black"/></svg>

<svg xmlns="http://www.w3.org/2000/svg" viewBox="0 0 15 15" fill="currentColor"><path fill-rule="evenodd" clip-rule="evenodd" d="M4 3.941V3.5a3.5 3.5 0 117 0v.441l2.776-1.388.448.894-2.953 1.477.043.086A6.5 6.5 0 0112 7.916V8h3v1h-3v1.5c0 .625-.127 1.22-.358 1.762l2.582 1.29-.448.895-2.627-1.313A4.494 4.494 0 017.5 15a4.494 4.494 0 01-3.65-1.866l-2.626 1.313-.448-.894 2.582-1.291A4.486 4.486 0 013 10.5V9H0V8h3v-.084a6.5 6.5 0 01.686-2.906l.043-.086L.776 3.447l.448-.894L4 3.94zM5 3.5a2.5 2.5 0 015 0V4H5v-.5z" fill="currentColor"/></svg>
